crown-circle-outline.svg

<svg fill="currentColor" viewBox="0 0 24 24"><path d="M12 2C6.47 2 2 6.5 2 12s4.5 10 10 10 10-4.5 10-10S17.5 2 12 2m0 18c-4.42 0-8-3.58-8-8s3.58-8 8-8 8 3.58 8 8-3.58 8-8 8m-4-6L7 8l3 2 2-3 2 3 3-2-1 6zm.56 2c-.34 0-.56-.22-.56-.56V15h8v.44c0 .34-.22.56-.56.56z"/></svg>

<svg  viewBox="0 0 24 24" fill="currentColor"><path  d="M12 2C6.47 2 2 6.5 2 12C2 17.5 6.5 22 12 22S22 17.5 22 12 17.5 2 12 2M12 20C7.58 20 4 16.42 4 12C4 7.58 7.58 4 12 4S20 7.58 20 12C20 16.42 16.42 20 12 20M8 14L7 8L10 10L12 7L14 10L17 8L16 14H8M8.56 16C8.22 16 8 15.78 8 15.44V15H16V15.44C16 15.78 15.78 16 15.44 16H8.56Z"/></svg>
